dist/img/common/svg/ic_copy.svg

<svg width="46" height="46" viewBox="0 0 46 46" fill="none" xmlns="http://www.w3.org/2000/svg"><rect width="46" height="46" rx="22.5" fill="#C4C4C4"/><g clip-path="url(#clip0_241_48)"><path d="M27 13H15c-1.1 0-2 .9-2 2v14h2V15h12v-2zm3 4H19c-1.1 0-2 .9-2 2v14c0 1.1.9 2 2 2h11c1.1 0 2-.9 2-2V19c0-1.1-.9-2-2-2zm0 16H19V19h11v14z" fill="#fff"/></g><defs><clipPath id="clip0_241_48"><path fill="#fff" transform="translate(11 12)" d="M0 0h24v24H0z"/></clipPath></defs></svg>

<svg width="46" height="46" viewBox="0 0 46 46" fill="none" xmlns="http://www.w3.org/2000/svg">
<rect width="46" height="46" rx="22.5" fill="#C4C4C4"/>
<g clip-path="url(#clip0_241_48)">
<path d="M27 13H15C13.9 13 13 13.9 13 15V29H15V15H27V13ZM30 17H19C17.9 17 17 17.9 17 19V33C17 34.1 17.9 35 19 35H30C31.1 35 32 34.1 32 33V19C32 17.9 31.1 17 30 17ZM30 33H19V19H30V33Z" fill="white"/>
</g>
<defs>
<clipPath id="clip0_241_48">
<rect width="24" height="24" fill="white" transform="translate(11 12)"/>
</clipPath>
</defs>
</svg>
